X:3
T:"Joseff McKrimmon's Fancy" by Elizabeth (Clark) Zekley  1990
D:Tune written for Beth's friend Joseff McKrimmon
S:Original Tune
R:Jig
O:Mendocino California
M:6/8
Q:300
F:http://larkcamp.com/meabc.txt
K:G
GAB dBd|~e3 dBA|GAB dBG|FGA AFD|GAB dBd|~e3 def|gfe dBG|~A3 BGE:||:B2 E ~E3|~E3 BGE|B2 E ~E3|FGA dAF|B2 E ~E3|~E3 BGE|FGA dAd|fdA AFD:|
